build/system/VideoOffOutline.svg

<svg xmlns="http://www.w3.org/2000/svg" fill="none" viewBox="0 0 24 24" focusable="false"><path d="M0 0H24V24H0z"/><path fill="#74767B" fill-rule="evenodd" d="M3.89746 2.51538L6.59082 6.00024L12.0503 6.00024C13.707 6.00024 15.0503 7.34351 15.0503 9.00024L15.0503 15.0002C15.0503 15.5291 14.9136 16.0261 14.6733 16.4575L18.5742 21.5046C18.7969 21.7925 18.7456 22.1936 18.4575 22.4163C18.1694 22.6389 17.7681 22.5874 17.5454 22.2996L13.792 17.4431L12.9951 16.4136L5.95264 7.30029L4.9541 6.01025L2.86865 3.3103C2.646 3.02222 2.69775 2.62109 2.98584 2.39844C3.27393 2.17578 3.6748 2.22729 3.89746 2.51538ZM3.64111 6.43677C2.77686 6.96338 2.2002 7.91455 2.2002 9.00024L2.2002 15.0002C2.2002 16.657 3.54346 18.0002 5.2002 18.0002L12.0503 18.0002C12.2192 18.0002 12.3853 17.9863 12.5469 17.9592L11.5737 16.7002L5.2002 16.7002C4.26123 16.7002 3.5 15.9392 3.5 15.0002L3.5 9.00024C3.5 8.33276 3.88477 7.75488 4.44482 7.47681L3.64111 6.43677ZM13.7329 15.2412L7.5957 7.30029L12.0503 7.30029C12.9893 7.30029 13.75 8.06128 13.75 9.00024L13.75 15.0002C13.75 15.082 13.7441 15.1624 13.7329 15.2412ZM19.8447 8.04175C19.5254 8.01709 19.2168 8.07056 18.918 8.20117L16.7388 9.15454C16.4053 9.30029 16.2583 9.677 16.4038 10.0105C16.5498 10.344 16.9268 10.4915 17.2603 10.3455L19.439 9.39233C19.5273 9.35376 19.6167 9.33521 19.708 9.33618C19.8032 9.34937 19.9727 9.3894 20.0552 9.44385C20.1108 9.48486 20.1904 9.55444 20.2295 9.60938C20.2477 9.64176 20.3019 9.73673 20.314 9.77124C20.3315 9.82056 20.3423 9.87231 20.3472 9.92627L20.3496 13.0122C20.3423 13.1057 20.314 13.2488 20.2686 13.3291C20.2231 13.3979 20.1416 13.4968 20.0718 13.5452C20.0386 13.5669 19.9878 13.5964 19.9521 13.6118C19.8916 13.6379 19.8281 13.6541 19.7617 13.6606C19.6572 13.6685 19.5396 13.6516 19.439 13.6077L17.2603 12.6545C16.9268 12.5085 16.5498 12.656 16.4038 12.9895C16.2583 13.323 16.4053 13.6997 16.7388 13.8455L18.918 14.7988C19.2148 14.9285 19.5215 14.9819 19.8384 14.9587C20.1465 14.9282 20.4819 14.8257 20.7437 14.6592C20.9688 14.4985 21.2437 14.2368 21.3833 13.999C21.3984 13.9722 21.4326 13.9104 21.4463 13.8831C21.4941 13.7871 21.5342 13.6885 21.5649 13.5876C21.6128 13.417 21.6494 13.1968 21.6494 13.0122L21.6494 9.98779C21.6494 9.92139 21.6463 9.85579 21.6401 9.79102C21.6287 9.67285 21.6069 9.55754 21.5747 9.44507C21.5342 9.30493 21.4761 9.16626 21.4028 9.03564C21.2568 8.80396 21.0156 8.52173 20.7842 8.36719C20.6411 8.27344 20.4731 8.18872 20.3159 8.13623C20.1792 8.09033 19.9922 8.05615 19.8447 8.04175Z"/></svg>

<svg xmlns="http://www.w3.org/2000/svg" fill="none" viewBox="0 0 24 24" focusable="false"><path fill="#74767B" fill-rule="evenodd" d="M3.89 2.51 6.59 6h5.46c1.65 0 3 1.34 3 3v6c0 .52-.14 1.02-.38 1.45l3.9 5.05c.22.29.17.69-.12.91s-.69.17-.91-.12l-3.75-4.85-.8-1.03L5.95 7.3l-1-1.29-2.09-2.7a.655.655 0 0 1 .12-.92c.29-.22.69-.17.91.12m-.25 3.92C2.77 6.96 2.2 7.91 2.2 9v6c0 1.65 1.34 3 3 3h6.85c.16 0 .33-.02.49-.05l-.97-1.25H5.2c-.94 0-1.7-.77-1.7-1.7V9c0-.67.38-1.25.94-1.53zm10.09 8.81L7.59 7.3h4.46c.93 0 1.7.76 1.7 1.7v6c0 .08-.01.16-.02.24m6.11-7.2c-.32-.03-.63.03-.93.16l-2.18.95c-.33.15-.48.52-.33.86.14.33.52.48.86.33l2.17-.95a.7.7 0 0 1 .27-.06c.1.01.27.05.35.11.06.04.14.11.17.16.02.04.08.13.09.17q.03.075.03.15v3.09c0 .09-.03.23-.08.31-.04.07-.12.17-.19.22-.04.02-.09.05-.12.07-.06.02-.13.04-.19.05-.11 0-.23-.01-.33-.06l-2.17-.95c-.34-.15-.72 0-.86.33-.15.34 0 .71.33.86l2.18.95c.3.13.61.19.92.16s.65-.13.91-.3c.22-.16.5-.42.64-.66.01-.02.05-.08.06-.11q.075-.15.12-.3c.05-.17.08-.39.08-.57V9.79c-.02-.12-.04-.24-.07-.35-.04-.14-.1-.28-.17-.41-.15-.23-.39-.51-.62-.67a2 2 0 0 0-.47-.23c-.14-.04-.32-.08-.47-.09"/></svg>
